icons/evolvere-blue-folders-flat-vivid-dark-fallback/apps/64/gajim.svg

<?xml version="1.0" encoding="UTF-8" standalone="no"?>
<!-- Created with Inkscape (http://www.inkscape.org/) -->

<svg
   xmlns:dc="http://purl.org/dc/elements/1.1/"
   xmlns:cc="http://creativecommons.org/ns#"
   xmlns:rdf="http://www.w3.org/1999/02/22-rdf-syntax-ns#"
   xmlns:svg="http://www.w3.org/2000/svg"
   xmlns="http://www.w3.org/2000/svg"
   xmlns:sodipodi="http://sodipodi.sourceforge.net/DTD/sodipodi-0.dtd"
   xmlns:inkscape="http://www.inkscape.org/namespaces/inkscape"
   width="64"
   height="64"
   id="svg13094"
   version="1.1"
   inkscape:version="0.91+devel r"
   sodipodi:docname="gajim.svg">
  <sodipodi:namedview
     id="base"
     pagecolor="#ffffff"
     bordercolor="#666666"
     borderopacity="1.0"
     inkscape:pageopacity="0"
     inkscape:pageshadow="2"
     inkscape:zoom="11.313709"
     inkscape:cx="30.371786"
     inkscape:cy="31.087439"
     inkscape:document-units="px"
     inkscape:current-layer="svg13094"
     showgrid="true"
     inkscape:snap-bbox="true"
     inkscape:bbox-paths="true"
     inkscape:bbox-nodes="true"
     inkscape:snap-bbox-edge-midpoints="true"
     inkscape:snap-bbox-midpoints="true"
     inkscape:object-paths="true"
     inkscape:snap-intersection-paths="true"
     inkscape:object-nodes="true"
     inkscape:snap-smooth-nodes="true"
     inkscape:snap-midpoints="true"
     inkscape:snap-object-midpoints="true"
     inkscape:snap-center="true"
     showguides="false"
     inkscape:guide-bbox="true"
     inkscape:window-width="1920"
     inkscape:window-height="1023"
     inkscape:window-x="-10"
     inkscape:window-y="35"
     inkscape:window-maximized="1"
     inkscape:snap-global="true"
     fit-margin-top="0"
     fit-margin-left="0"
     fit-margin-right="0"
     fit-margin-bottom="0"
     showborder="true"
     inkscape:showpageshadow="false"
     inkscape:snap-page="true">
    <inkscape:grid
       type="xygrid"
       id="grid3075"
       empspacing="5"
       visible="true"
       enabled="true"
       snapvisiblegridlinesonly="true"
       originx="1.6362304e-08px"
       originy="18px" />
    <sodipodi:guide
       orientation="0,1"
       position="-11,30"
       id="guide9148" />
    <sodipodi:guide
       orientation="1,0"
       position="32,70"
       id="guide9150" />
  </sodipodi:namedview>
  <defs
     id="defs13096" />
  <metadata
     id="metadata13099">
    <rdf:RDF>
      <cc:Work
         rdf:about="">
        <dc:format>image/svg+xml</dc:format>
        <dc:type
           rdf:resource="http://purl.org/dc/dcmitype/StillImage" />
        <dc:title></dc:title>
      </cc:Work>
    </rdf:RDF>
  </metadata>
  <g
     id="use3833"
     transform="translate(75.837199,1.2374368)"
     style="fill:#5da52e;fill-opacity:1">
    <path
       id="path3812"
       d="m -75.837199,2.7625633 0,29.9999997 0,28 2,2 30,0 30,0 2,-2 0,-28 0,-29.9999997 -32,0 -32,0 z"
       style="color:#000000;display:inline;overflow:visible;visibility:visible;fill:#5da52e;fill-opacity:1;fill-rule:nonzero;stroke:none;stroke-width:2.28571415;marker:none;enable-background:accumulate"
       inkscape:connector-curvature="0" />
    <path
       inkscape:connector-curvature="0"
       style="color:#000000;display:inline;overflow:visible;visibility:visible;fill:#5da52e;fill-opacity:1;fill-rule:nonzero;stroke:none;stroke-width:2.28571415;marker:none;enable-background:accumulate"
       d="m -75.837199,2.7625632 0,29.9999998 0,28 2,2 30,0 30,0 2,-2 0,-28 0,-29.9999998 -32,0 -32,0 z"
       id="path4095" />
    <path
       inkscape:connector-curvature="0"
       style="color:#000000;display:inline;overflow:visible;visibility:visible;fill:#5da52e;fill-opacity:1;fill-rule:nonzero;stroke:none;stroke-width:2.28571415;marker:none;enable-background:accumulate"
       d="m -75.837199,2.7625632 0,29.9999998 0,28 2,2 30,0 30,0 2,-2 0,-28 0,-29.9999998 -32,0 -32,0 z"
       id="path5441" />
  </g>
  <path
     inkscape:connector-curvature="0"
     style="color:#000000;display:inline;overflow:visible;visibility:visible;fill:#98ea3e;fill-opacity:1;fill-rule:nonzero;stroke:none;stroke-width:2.28571415;marker:none;enable-background:accumulate"
     d="M 2,0 0,1 0,4 32,4 64,4 64,1 62,0 32,0 2,0 Z"
     id="path4090" />
  <path
     d="M 64,6 62,4 64,3 Z"
     id="path3028"
     style="fill:#78c535;fill-opacity:1"
     inkscape:connector-curvature="0" />
  <g
     id="g3043"
     inkscape:export-filename="folder.png"
     inkscape:export-xdpi="90"
     inkscape:export-ydpi="90"
     transform="translate(-0.62500009,0.082283)" />
  <g
     id="scalable"
     transform="matrix(1.0385892,0,0,1.0385892,1214.7222,1878.8121)"
     inkscape:label="#g3701"
     style="fill:#ffffff" />
  <path
     inkscape:connector-curvature="0"
     style="fill:#a4f34f;fill-opacity:1;fill-rule:nonzero"
     d="M 0,3 0,6 2,4 Z"
     id="path4298"
     sodipodi:nodetypes="cccc" />
  <path
     style="color:#000000;fill:#1c4800;fill-opacity:0.36046511;fill-rule:nonzero;stroke:none;stroke-width:2;marker:none;visibility:visible;display:inline;overflow:visible;enable-background:accumulate"
     d="m 25.875,29.625 c -6.492497,0 -11.707994,2.719377 -14.875,7 2.835925,0.825559 5.709777,1.537335 8.75,1.75 L 20.625,53.25 C 23.720746,54.079503 26.878733,55 32,55 c 5.121267,0 8.279254,-0.920497 11.375,-1.75 L 44.25,38.375 c 3.040223,-0.212665 5.914075,-0.924441 8.75,-1.75 -3.167006,-4.280623 -8.382503,-7 -14.875,-7 -0.211791,-0.0025 -0.387121,0.01327 -0.574219,0.02734 -0.0056,0.0044 -0.02177,-0.0043 -0.02734,0 l -0.08203,0.08203 -0.875,3.5 0.875,0 c 0.258201,-0.0081 0.515496,-0.04482 0.765625,-0.109375 2.746709,0.01158 5.132142,0.578098 7.136719,1.558594 -0.446789,0.05558 -0.892027,0.160081 -1.339844,0.191406 -1.678397,0.115392 -3.152563,1.601946 -3.253906,3.28125 L 40.039063,50.460937 C 37.787586,51.024855 35.471051,51.5 32,51.5 c -3.471051,0 -5.787586,-0.475145 -8.039063,-1.039063 L 23.25,38.15625 C 23.148657,36.476946 21.674491,34.990392 19.996094,34.875 19.548277,34.84367 19.103039,34.739174 18.65625,34.683594 c 1.989753,-0.973245 4.360997,-1.511691 7.082031,-1.53125 0.268939,0.05949 0.544919,0.08709 0.820313,0.08203 l 0.875,0 -0.875,-3.5 c -0.03136,-0.02369 -0.05099,-0.05794 -0.08203,-0.08203 -0.0089,-6.68e-4 -0.01845,6.68e-4 -0.02734,0 -0.187098,-0.01407 -0.362428,-0.02982 -0.574219,-0.02734 z"
     id="path3904"
     inkscape:connector-curvature="0"
     sodipodi:nodetypes="ccccsccccccccccccccsccccccccccc" />
  <path
     sodipodi:type="inkscape:offset"
     inkscape:radius="-0.86612439"
     inkscape:original="M 32 12.46875 C 27.002116 12.46875 22.9375 16.502116 22.9375 21.5 C 22.9375 24.452131 24.375273 27.098149 26.5625 28.75 L 28.375 36 L 30.1875 37.78125 L 33.8125 37.78125 L 35.625 36 L 37.4375 28.75 C 39.624728 27.098149 41.0625 24.452131 41.0625 21.5 C 41.0625 16.502116 36.997884 12.46875 32 12.46875 z M 32 16.0625 C 34.99873 16.0625 37.4375 18.50127 37.4375 21.5 C 37.4375 24.49873 34.99873 26.9375 32 26.9375 C 29.00127 26.9375 26.5625 24.49873 26.5625 21.5 C 26.5625 18.50127 29.00127 16.0625 32 16.0625 z M 28.375 30.5625 L 35.625 30.5625 L 35.625 32.375 L 28.375 32.375 L 28.375 30.5625 z "
     style="fill:#fff7b2;fill-opacity:1;fill-rule:nonzero;stroke:none"
     id="path3875"
     d="m 32,13.34375 c -4.531901,0 -8.1875,3.62796 -8.1875,8.15625 0,2.670913 1.303322,5.068717 3.28125,6.5625 a 0.866211,0.866211 0 0 1 0.3125,0.46875 l 0.34375,1.4375 a 0.866211,0.866211 0 0 1 0.625,-0.28125 l 7.25,0 a 0.866211,0.866211 0 0 1 0.625,0.28125 l 0.34375,-1.4375 a 0.866211,0.866211 0 0 1 0.3125,-0.46875 C 38.884179,26.568717 40.1875,24.170913 40.1875,21.5 40.1875,16.97171 36.531901,13.34375 32,13.34375 z m 0,1.84375 c 3.468324,0 6.3125,2.844176 6.3125,6.3125 0,3.468324 -2.844176,6.3125 -6.3125,6.3125 -3.468324,0 -6.3125,-2.844176 -6.3125,-6.3125 0,-3.468324 2.844176,-6.3125 6.3125,-6.3125 z m -3.40625,18.0625 0.5625,2.3125 1.375,1.34375 2.9375,0 1.375,-1.34375 0.5625,-2.3125 -6.8125,0 z"
     transform="translate(0,1)" />
</svg>

<svg xmlns="http://www.w3.org/2000/svg" viewBox="0 0 64 64" xmlns:xlink="http://www.w3.org/1999/xlink"><defs><path id="0" d="m-75.837 2.763v30 28l2 2h30 30l2-2v-28-30h-32-32" color="#000"/></defs><g transform="translate(75.837 1.237)" fill="#5da52e"><use xlink:href="#0"/><use xlink:href="#0"/><use xlink:href="#0"/></g><path d="m2 0l-2 1v3h32 32v-3l-2-1h-30-30" fill="#98ea3e" color="#000"/><path d="m64 6l-2-2 2-1" fill="#78c535"/><path d="m0 3v3l2-2" fill="#a4f34f"/><path d="m25.875 29.625c-6.492 0-11.708 2.719-14.875 7 2.836.826 5.71 1.537 8.75 1.75l.875 14.875c3.096.83 6.254 1.75 11.375 1.75 5.121 0 8.279-.92 11.375-1.75l.875-14.875c3.04-.213 5.914-.924 8.75-1.75-3.167-4.281-8.383-7-14.875-7-.212-.003-.387.013-.574.027-.006.004-.022-.004-.027 0l-.082.082-.875 3.5h.875c.258-.008.515-.045.766-.109 2.747.012 5.132.578 7.137 1.559-.447.056-.892.16-1.34.191-1.678.115-3.153 1.602-3.254 3.281l-.711 12.305c-2.251.564-4.568 1.039-8.04 1.039-3.471 0-5.788-.475-8.04-1.039l-.711-12.305c-.101-1.679-1.576-3.166-3.254-3.281-.448-.031-.893-.136-1.34-.191 1.99-.973 4.361-1.512 7.082-1.531.269.059.545.087.82.082h.875l-.875-3.5c-.031-.024-.051-.058-.082-.082-.009-.001-.018.001-.027 0-.187-.014-.362-.03-.574-.027" fill="#1c4800" fill-opacity=".36" color="#000"/><path d="m32 13.344c-4.532 0-8.188 3.628-8.188 8.156 0 2.671 1.303 5.069 3.281 6.563a.866211 .866211 0 0 1 .3125 .46875l.344 1.438a.866211 .866211 0 0 1 .625 -.28125h7.25a.866211 .866211 0 0 1 .625 .28125l.344-1.438a.866211 .866211 0 0 1 .3125 -.46875c1.978-1.494 3.281-3.892 3.281-6.563 0-4.528-3.656-8.156-8.188-8.156m0 1.844c3.468 0 6.313 2.844 6.313 6.313 0 3.468-2.844 6.313-6.313 6.313-3.468 0-6.313-2.844-6.313-6.313 0-3.468 2.844-6.313 6.313-6.313m-3.406 18.06l.563 2.313 1.375 1.344h2.938l1.375-1.344.563-2.313h-6.813" transform="translate(0 1)" fill="#fff7b2"/></svg>
